src/icons/outline/symbols/settings.svg

<svg width="24" height="24" viewBox="0 0 24 24" fill="none" xmlns="http://www.w3.org/2000/svg">
<g clip-path="url(#clip0_402_821)">
<path d="M13.5557 1C14.3644 1 15.0706 1.54789 15.2344 2.32031L15.6445 4.45117C16.1357 4.66622 16.6166 4.93041 17.0566 5.2334L19.166 4.50977C19.9438 4.25583 20.7932 4.55905 21.2129 5.21387L22.7793 7.75586C23.1785 8.45974 23.0251 9.29134 22.4111 9.80957L20.6914 11.2178C20.7221 11.4719 20.732 11.7361 20.7422 12C20.7422 12.2639 20.7221 12.5281 20.6914 12.792L22.4111 14.1992C22.9946 14.7174 23.1474 15.4904 22.8096 16.1455L21.2236 18.7852C20.8039 19.4207 20.0354 19.7043 19.3086 19.5186L17.1387 18.7754C16.6986 19.0784 16.2178 19.3425 15.7266 19.5576L15.3164 21.6699C15.1423 22.4617 14.4159 23.0185 13.5869 22.999H10.4443V22.9893C9.64596 22.9893 8.93974 22.4422 8.76562 21.6699L8.35547 19.5381C7.86425 19.323 7.38342 19.0589 6.94336 18.7559L4.83398 19.4795C4.05608 19.7335 3.20676 19.4304 2.78711 18.7754L1.2207 16.2432C0.821534 15.5392 0.974715 14.7076 1.58887 14.1895L3.30859 12.7822C3.27789 12.5281 3.26805 12.2639 3.25781 12.0098C3.25781 11.7361 3.2779 11.4719 3.30859 11.208L1.59961 9.81934C0.995775 9.29146 0.831981 8.47046 1.2002 7.80566L2.77637 5.22363C3.16537 4.549 4.0155 4.22629 4.80371 4.46094L6.95312 5.2334C7.38301 4.94011 7.8334 4.67603 8.31445 4.46094L8.72461 2.33984C8.89862 1.53814 9.63523 1.00007 10.4541 1H13.5557ZM13.5557 2.4668H10.4541C10.3621 2.46687 10.2705 2.5254 10.25 2.61328L9.76855 5.09668C9.71737 5.34112 9.5533 5.54676 9.30762 5.64453C8.68335 5.8987 8.10008 6.22131 7.57812 6.63184C7.36316 6.79805 7.08599 6.83702 6.83008 6.74902L4.32227 5.84961C4.27105 5.83997 4.17904 5.86923 4.12793 5.94727L2.55176 8.51855C2.55176 8.51855 2.55186 8.65618 2.61328 8.71484L4.62988 10.3477C4.8344 10.5139 4.9369 10.7684 4.88574 11.0225C4.8346 11.345 4.80371 11.6775 4.80371 12.0098C4.80373 12.3226 4.83457 12.6452 4.88574 12.9678C4.92665 13.2219 4.83455 13.4764 4.62988 13.6426L2.60254 15.3047C2.54133 15.3536 2.5208 15.4512 2.56152 15.5195L4.10742 18.0322C4.14837 18.1007 4.24088 18.1299 4.33301 18.1006L6.82031 17.2402C6.90217 17.2109 6.99433 17.2012 7.07617 17.2012C7.25005 17.2012 7.41386 17.25 7.54688 17.3574C8.08942 17.7681 8.68322 18.0915 9.32812 18.3457C9.57366 18.4434 9.74754 18.6483 9.79883 18.8926L10.2803 21.3955C10.2905 21.464 10.3727 21.5234 10.4648 21.5234H13.6074C13.7301 21.5234 13.7911 21.4639 13.8115 21.376L14.293 18.8926C14.3442 18.6484 14.5183 18.4435 14.7637 18.3457C15.3983 18.1013 16.0024 17.7681 16.5449 17.3574C16.7496 17.2011 17.0366 17.162 17.2822 17.2402L19.7803 18.1006C19.7879 18.0983 19.8835 18.0686 19.9229 18.0029L21.4688 15.4414C21.4687 15.4388 21.4679 15.3237 21.4072 15.2754L19.4014 13.623C19.1966 13.4568 19.1046 13.2025 19.1455 12.9482C19.1967 12.6257 19.2275 12.303 19.2275 11.9805C19.2275 11.6677 19.1966 11.345 19.1455 11.0225C19.1046 10.7682 19.1966 10.5139 19.4014 10.3477L21.4277 8.68555C21.4892 8.63666 21.5097 8.53817 21.4688 8.46973L19.9229 5.95703C19.8819 5.88886 19.7902 5.85953 19.6982 5.88867L17.2109 6.74902C16.9653 6.837 16.6886 6.78821 16.4736 6.63184C15.9311 6.22122 15.3372 5.88896 14.6924 5.64453C14.4467 5.54676 14.2729 5.34112 14.2217 5.09668L13.7402 2.59375C13.7198 2.52531 13.6171 2.43746 13.5557 2.4668ZM12 8.50977C14.0064 8.50977 15.6445 10.0738 15.6445 11.9902C15.6444 13.9066 14.0063 15.4707 12 15.4707C9.99376 15.4706 8.35653 13.9065 8.35645 11.9902C8.35645 10.0739 9.99371 8.50987 12 8.50977ZM12 9.98535C10.8331 9.98546 9.8916 10.8854 9.8916 12C9.89168 13.1145 10.8332 14.0136 12 14.0137C13.1669 14.0137 14.1093 13.1146 14.1094 12C14.1094 10.8854 13.1875 9.98535 12 9.98535Z" fill="#212121"/>
</g>
<defs>
<clipPath id="clip0_402_821">
<rect width="24" height="24" fill="white"/>
</clipPath>
</defs>
</svg>

<svg xmlns="http://www.w3.org/2000/svg" width="24" height="24" fill="none" viewBox="0 0 24 24"><g clip-path="url(#a)"><path fill="currentColor" d="M13.556 1c.808 0 1.515.548 1.678 1.32l.41 2.131c.492.215.973.48 1.413.782l2.109-.723c.778-.254 1.627.05 2.047.704l1.566 2.542c.4.704.246 1.535-.368 2.054l-1.72 1.408c.031.254.041.518.051.782 0 .264-.02.528-.05.792l1.72 1.407c.583.518.735 1.291.398 1.946l-1.586 2.64c-.42.636-1.189.92-1.915.734l-2.17-.744c-.44.303-.921.568-1.412.783l-.41 2.112c-.175.792-.901 1.348-1.73 1.329h-3.143v-.01c-.798 0-1.504-.547-1.678-1.32l-.41-2.13a8.6 8.6 0 0 1-1.413-.783l-2.109.724c-.778.253-1.627-.05-2.047-.705l-1.566-2.532a1.6 1.6 0 0 1 .368-2.053l1.72-1.408c-.031-.254-.041-.518-.051-.772 0-.274.02-.538.05-.802L1.6 9.819C.996 9.291.832 8.47 1.2 7.806l1.576-2.582c.39-.675 1.24-.998 2.028-.763l2.15.772c.429-.293.88-.557 1.36-.772l.41-2.121C8.9 1.538 9.636 1 10.455 1zm0 1.467h-3.102c-.092 0-.184.058-.204.146l-.481 2.484a.75.75 0 0 1-.461.548 7.1 7.1 0 0 0-1.73.987.79.79 0 0 1-.748.117l-2.508-.9c-.051-.009-.143.02-.194.098L2.552 8.52s0 .137.061.196l2.017 1.633c.204.166.307.42.256.675a6 6 0 0 0-.082.987q.002.472.082.958a.72.72 0 0 1-.256.675l-2.027 1.662a.17.17 0 0 0-.041.215l1.545 2.512c.041.069.134.098.226.069l2.487-.86a.8.8 0 0 1 .256-.04c.174 0 .338.049.47.156a7.5 7.5 0 0 0 1.782.989.76.76 0 0 1 .47.547l.482 2.502c.01.069.093.128.185.128h3.142c.123 0 .184-.06.205-.147l.481-2.483a.76.76 0 0 1 .47-.547 7.3 7.3 0 0 0 1.782-.989.83.83 0 0 1 .737-.117l2.498.86c.008-.002.104-.031.143-.097l1.546-2.562c0-.002-.001-.117-.062-.166l-2.006-1.652a.71.71 0 0 1-.256-.675q.08-.483.082-.968c0-.312-.03-.635-.082-.957a.71.71 0 0 1 .256-.675l2.027-1.662a.174.174 0 0 0 .04-.216l-1.545-2.513c-.041-.068-.133-.097-.225-.068l-2.487.86a.8.8 0 0 1-.737-.117 7.1 7.1 0 0 0-1.782-.987.76.76 0 0 1-.47-.548l-.482-2.503c-.02-.069-.123-.157-.184-.127M12 8.51c2.006 0 3.645 1.564 3.645 3.48 0 1.917-1.639 3.48-3.645 3.48s-3.643-1.564-3.644-3.48c0-1.916 1.638-3.48 3.644-3.48m0 1.475c-1.167 0-2.108.9-2.108 2.015 0 1.114.941 2.014 2.108 2.014s2.11-.9 2.11-2.014c0-1.115-.922-2.015-2.11-2.015"/></g><defs><clipPath id="a"><path fill="currentColor" d="M0 0h24v24H0z"/></clipPath></defs></svg>
